X:1
T:As I gaed by the Luckenbooths
Z:Jack Campin: "Embro, Embro", transcription (c) 2001
F:06people/abc/Lucken.abc
S:Alfred Moffat, 50 Traditional Scottish Nursery Rhymes
M:C|
L:1/4
Q:1/2=86
K:E Minor
(B/A/)|GEED  |EEE (B/A/)|GEED  |E3||
(F/G/)|AA  AB|AFD (F/G/)|A>A AF|A3||
(B/A/)|GEED  |E2E (B/A/)|GEED  |E3||
 B    |e>e ed|B2A (G/A/)|B>B AF|E3|]

